svg/u0031_20e3.svg

<svg viewBox="0 0 128 128" xmlns="http://www.w3.org/2000/svg">
  <g>
    <path d="M116.46,3.96h-104c-4.42,0-8,3.58-8,8v104c0,4.42,3.58,8,8,8h104c4.42,0,8-3.58,8-8v-104 C124.46,7.54,120.88,3.96,116.46,3.96z" fill="#427687"/>
    <path d="M122.16,6.26c-1.54-1.46-3.58-2.28-5.7-2.3h-104c-4.42,0-8,3.58-8,8v104 c0.02,2.12,0.84,4.16,2.3,5.7l16.8-16.8h76c3.26-0.01,5.89-2.64,5.9-5.9v-76L122.16,6.26z" fill="#8CAFBF"/>
    <path d="M68.96,97.86h-8.9c-0.66-0.01-1.19-0.54-1.2-1.2v-52.4c0.04-0.66-0.47-1.23-1.13-1.27 c-0.16-0.01-0.32,0.01-0.47,0.07l-13.6,4.6c-0.62,0.22-1.31-0.1-1.53-0.73c-0.05-0.15-0.08-0.31-0.07-0.47v-7 c0-0.52,0.32-1,0.8-1.2l25.8-9.5c0.12-0.08,0.26-0.11,0.4-0.1c0.66,0.01,1.19,0.54,1.2,1.2v66.5c0.07,0.76-0.49,1.43-1.25,1.5 C68.99,97.86,68.97,97.86,68.96,97.86z" fill="#FAFAFA"/>
    <path d="M40.16,12.86c0-2.3-1.6-3-10.8-2.7c-7.7,0.3-11.5,1.2-13.8,4 s-2.9,8.5-3,15.3c0,4.8,0,9.3,2.5,9.3c3.4,0,3.4-7.9,6.2-12.3C26.66,17.76,40.16,15.86,40.16,12.86z" opacity="0.5" fill="#B4E1ED" enable-background="new "/>
  </g>
</svg>

<svg viewBox="0 0 128 128" xmlns="http://www.w3.org/2000/svg">
  <defs/>
  <path d="M116.46,3.96 L12.46,3.96 C8.04,3.96 4.46,7.54 4.46,11.96 L4.46,115.96 C4.46,120.38 8.04,123.96 12.46,123.96 L116.46,123.96 C120.88,123.96 124.46,120.38 124.46,115.96 L124.46,11.96 C124.46,7.54 120.88,3.96 116.46,3.96 Z" fill="#427687"/>
  <path d="M122.16,6.26 C120.62,4.8 118.58,3.98 116.46,3.96 L12.46,3.96 C8.04,3.96 4.46,7.54 4.46,11.96 L4.46,115.96 C4.48,118.08 5.3,120.12 6.76,121.66 L23.56,104.86 L99.56,104.86 C102.82,104.85 105.45,102.22 105.46,98.96 L105.46,22.96 L122.16,6.26 Z" fill="#8CAFBF"/>
  <path d="M68.96,97.86 L60.06,97.86 C59.4,97.85 58.87,97.32 58.86,96.66 L58.86,44.26 C58.9,43.6 58.39,43.03 57.73,42.99 C57.57,42.98 57.41,43 57.26,43.06 L43.66,47.66 C43.04,47.88 42.35,47.56 42.13,46.93 C42.08,46.78 42.05,46.62 42.06,46.46 L42.06,39.46 C42.06,38.94 42.38,38.46 42.86,38.26 L68.66,28.76 C68.78,28.68 68.92,28.65 69.06,28.66 C69.72,28.67 70.25,29.2 70.26,29.86 L70.26,96.36 C70.33,97.12 69.77,97.79 69.01,97.86 C68.99,97.86 68.97,97.86 68.96,97.86 Z" fill="#FAFAFA"/>
  <path d="M40.16,12.86 C40.16,10.56 38.56,9.86 29.36,10.16 C21.66,10.46 17.86,11.36 15.56,14.16 C13.26,16.96 12.66,22.66 12.56,29.46 C12.56,34.26 12.56,38.76 15.06,38.76 C18.46,38.76 18.46,30.86 21.26,26.46 C26.66,17.76 40.16,15.86 40.16,12.86 Z" fill="#B4E1ED" opacity="0.5"/>
</svg>
